; generated by Slic3r 1.3.0-dev on 2017-12-19 at 13:30:49

; external perimeters extrusion width = 0.50mm (3.92mm^3/s)
; perimeters extrusion width = 0.72mm (11.78mm^3/s)
; infill extrusion width = 0.72mm (15.71mm^3/s)
; solid infill extrusion width = 0.72mm (3.93mm^3/s)
; top infill extrusion width = 0.72mm (2.95mm^3/s)

M107
M104 S200 ; set temperature
G28 ; home all axes
G1 Z5 F5000 ; lift nozzle

; Filament gcode

M109 S200 ; set temperature and wait for it to be reached
G21 ; set units to millimeters
G90 ; use absolute coordinates
M82 ; use absolute distances for extrusion
G92 E0
G1 Z0.350 F7800.000
G1 E-2.00000 F2400.00000
G92 E0
G1 X78.415 Y93.753 F7800.000
G1 E2.00000 F2400.00000
G1 F1800
G1 X80.168 Y92.274 E2.07096
G1 X82.320 Y91.481 E2.14192
G1 X83.500 Y91.375 E2.17858
G1 X116.500 Y91.375 E3.19964
G1 X118.759 Y91.772 E3.27060
G1 X120.747 Y92.915 E3.34156
G1 X122.226 Y94.668 E3.41253
G1 X123.019 Y96.820 E3.48349
G1 X123.125 Y98.000 E3.52014
G1 X123.125 Y102.000 E3.64390
G1 X122.728 Y104.259 E3.71487
G1 X121.585 Y106.247 E3.78583
G1 X119.832 Y107.726 E3.85679
G1 X117.680 Y108.519 E3.92775
G1 X116.500 Y108.625 E3.96440
G1 X83.500 Y108.625 E4.98547
G1 X81.241 Y108.228 E5.05643
G1 X79.253 Y107.085 E5.12739
G1 X77.774 Y105.332 E5.19836
G1 X76.981 Y103.180 E5.26932
G1 X76.875 Y102.000 E5.30597
G1 X76.875 Y98.000 E5.42973
G1 X77.272 Y95.741 E5.50070
G1 X78.378 Y93.818 E5.56934
G1 E3.56934 F2400.00000
G92 E0
G1 X114.900 Y100.400 F7800.000
G1 E2.00000 F2400.00000
G1 F1800
G1 X85.100 Y100.400 E2.92206
G1 X85.100 Y99.600 E2.94683
G1 X114.900 Y99.600 E3.86890
G1 X114.900 Y100.325 E3.89134
G1 X115.525 Y101.025 F7800.000
G1 F1800
G1 X84.475 Y101.025 E4.85208
G1 X84.475 Y98.975 E4.91551
G1 X115.525 Y98.975 E5.87625
G1 X115.525 Y100.950 E5.93737
G1 X116.150 Y101.650 F7800.000
G1 F1800
G1 X83.850 Y101.650 E6.93677
G1 X83.850 Y98.350 E7.03888
G1 X116.150 Y98.350 E8.03828
G1 X116.150 Y101.575 E8.13807
G1 X115.650 Y101.633 F7800.000
G1 E6.13807 F2400.00000
G92 E0
G1 X114.588 Y100.000 F7800.000
G1 E2.00000 F2400.00000
G1 F1800
G1 X85.412 Y100.000 E2.14511
G1 Z0.650 F7800.000
G1 X115.050 Y100.550 F7800.000
G1 F3600
G1 X84.950 Y100.550 E2.98124
G1 X84.950 Y99.450 E3.01182
G1 X115.050 Y99.450 E3.84796
G1 X115.050 Y100.475 E3.87646
G1 X115.705 Y101.205 F7800.000
G1 F3600
G1 X84.295 Y101.205 E4.74895
G1 X84.295 Y98.795 E4.81590
G1 X115.705 Y98.795 E5.68839
G1 X115.705 Y101.130 E5.75325
G1 X116.250 Y101.750 F7800.000
G1 F1800
G1 X83.750 Y101.750 E6.35412
G1 X83.750 Y98.250 E6.41883
G1 X116.250 Y98.250 E7.01970
G1 X116.250 Y101.675 E7.08302
G1 X115.750 Y101.732 F7800.000
G1 X114.723 Y100.000 F7800.000
G1 F1200
G1 X85.277 Y100.000 E7.56043
G1 Z0.950 F7800.000
G1 X115.050 Y100.550 F7800.000
G1 F3600
G1 X84.950 Y100.550 E8.39657
G1 X84.950 Y99.450 E8.42715
G1 X115.050 Y99.450 E9.26328
G1 X115.050 Y100.475 E9.29178
G1 X115.705 Y101.205 F7800.000
G1 F3600
G1 X84.295 Y101.205 E10.16428
G1 X84.295 Y98.795 E10.23122
G1 X115.705 Y98.795 E11.10372
G1 X115.705 Y101.130 E11.16857
G1 X116.250 Y101.750 F7800.000
G1 F1800
G1 X83.750 Y101.750 E11.76944
G1 X83.750 Y98.250 E11.83415
G1 X116.250 Y98.250 E12.43502
G1 X116.250 Y101.675 E12.49834
G1 X115.750 Y101.732 F7800.000
G1 X114.723 Y100.000 F7800.000
G1 F1200
G1 X85.277 Y100.000 E12.97576
M106 S249.9
G1 Z1.250 F7800.000
G1 X115.050 Y100.550 F7800.000
G1 F3600
G1 X84.950 Y100.550 E13.81189
G1 X84.950 Y99.450 E13.84247
G1 X115.050 Y99.450 E14.67861
G1 X115.050 Y100.475 E14.70710
G1 X115.705 Y101.205 F7800.000
G1 F3600
G1 X84.295 Y101.205 E15.57960
G1 X84.295 Y98.795 E15.64654
G1 X115.705 Y98.795 E16.51904
G1 X115.705 Y101.130 E16.58390
G1 X116.250 Y101.750 F7800.000
G1 F1800
G1 X83.750 Y101.750 E17.18477
G1 X83.750 Y98.250 E17.24947
G1 X116.250 Y98.250 E17.85034
G1 X116.250 Y101.675 E17.91367
G1 X115.750 Y101.732 F7800.000
G1 X114.723 Y100.000 F7800.000
G1 F1200
G1 X85.277 Y100.000 E18.39108
G1 Z1.550 F7800.000
G1 X115.050 Y100.550 F7800.000
G1 F3600
G1 X84.950 Y100.550 E19.22721
G1 X84.950 Y99.450 E19.25780
G1 X115.050 Y99.450 E20.09393
G1 X115.050 Y100.475 E20.12243
G1 X115.705 Y101.205 F7800.000
G1 F3600
G1 X84.295 Y101.205 E20.99492
G1 X84.295 Y98.795 E21.06187
G1 X115.705 Y98.795 E21.93436
G1 X115.705 Y101.130 E21.99922
G1 X116.250 Y101.750 F7800.000
G1 F1800
G1 X83.750 Y101.750 E22.60009
G1 X83.750 Y98.250 E22.66480
G1 X116.250 Y98.250 E23.26567
G1 X116.250 Y101.675 E23.32899
G1 X115.750 Y101.732 F7800.000
G1 X114.723 Y100.000 F7800.000
G1 F1200
G1 X85.277 Y100.000 E23.80640
G1 Z1.850 F7800.000
G1 X115.050 Y100.550 F7800.000
G1 F3600
G1 X84.950 Y100.550 E24.64254
G1 X84.950 Y99.450 E24.67312
G1 X115.050 Y99.450 E25.50925
G1 X115.050 Y100.475 E25.53775
G1 X115.705 Y101.205 F7800.000
G1 F3600
G1 X84.295 Y101.205 E26.41025
G1 X84.295 Y98.795 E26.47719
G1 X115.705 Y98.795 E27.34969
G1 X115.705 Y101.130 E27.41454
G1 X116.250 Y101.750 F7800.000
G1 F1800
G1 X83.750 Y101.750 E28.01541
G1 X83.750 Y98.250 E28.08012
G1 X116.250 Y98.250 E28.68099
G1 X116.250 Y101.675 E28.74431
G1 X115.750 Y101.732 F7800.000
G1 X114.723 Y100.000 F7800.000
G1 F1200
G1 X85.277 Y100.000 E29.22173
G1 Z2.150 F7800.000
G1 X115.050 Y100.550 F7800.000
G1 F3600
G1 X84.950 Y100.550 E30.05786
G1 X84.950 Y99.450 E30.08844
G1 X115.050 Y99.450 E30.92458
G1 X115.050 Y100.475 E30.95307
G1 X115.705 Y101.205 F7800.000
G1 F3600
G1 X84.295 Y101.205 E31.82557
G1 X84.295 Y98.795 E31.89251
G1 X115.705 Y98.795 E32.76501
G1 X115.705 Y101.130 E32.82987
G1 X116.250 Y101.750 F7800.000
G1 F1800
G1 X83.750 Y101.750 E33.43074
G1 X83.750 Y98.250 E33.49545
G1 X116.250 Y98.250 E34.09631
G1 X116.250 Y101.675 E34.15964
G1 X115.750 Y101.732 F7800.000
G1 X114.723 Y100.000 F7800.000
G1 F1200
G1 X85.277 Y100.000 E34.63705
G1 Z2.450 F7800.000
G1 X115.050 Y100.550 F7800.000
G1 F3600
G1 X84.950 Y100.550 E35.47319
G1 X84.950 Y99.450 E35.50377
G1 X115.050 Y99.450 E36.33990
G1 X115.050 Y100.475 E36.36840
G1 X115.705 Y101.205 F7800.000
G1 F3600
G1 X84.295 Y101.205 E37.24090
G1 X84.295 Y98.795 E37.30784
G1 X115.705 Y98.795 E38.18033
G1 X115.705 Y101.130 E38.24519
G1 X116.250 Y101.750 F7800.000
G1 F1800
G1 X83.750 Y101.750 E38.84606
G1 X83.750 Y98.250 E38.91077
G1 X116.250 Y98.250 E39.51164
G1 X116.250 Y101.675 E39.57496
G1 X115.750 Y101.732 F7800.000
G1 X114.723 Y100.000 F7800.000
G1 F1200
G1 X85.277 Y100.000 E40.05237
G1 Z2.750 F7800.000
G1 X115.050 Y100.550 F7800.000
G1 F3600
G1 X84.950 Y100.550 E40.88851
G1 X84.950 Y99.450 E40.91909
G1 X115.050 Y99.450 E41.75523
G1 X115.050 Y100.475 E41.78372
G1 X115.705 Y101.205 F7800.000
G1 F3600
G1 X84.295 Y101.205 E42.65622
G1 X84.295 Y98.795 E42.72316
G1 X115.705 Y98.795 E43.59566
G1 X115.705 Y101.130 E43.66051
G1 X116.250 Y101.750 F7800.000
G1 F1800
G1 X83.750 Y101.750 E44.26138
G1 X83.750 Y98.250 E44.32609
G1 X116.250 Y98.250 E44.92696
G1 X116.250 Y101.675 E44.99028
G1 X115.750 Y101.732 F7800.000
G1 X114.723 Y100.000 F7800.000
G1 F1200
G1 X85.277 Y100.000 E45.46770
G1 Z3.050 F7800.000
G1 X115.050 Y100.550 F7800.000
G1 F3600
G1 X84.950 Y100.550 E46.30383
G1 X84.950 Y99.450 E46.33441
G1 X115.050 Y99.450 E47.17055
G1 X115.050 Y100.475 E47.19905
G1 X115.705 Y101.205 F7800.000
G1 F3600
G1 X84.295 Y101.205 E48.07154
G1 X84.295 Y98.795 E48.13848
G1 X115.705 Y98.795 E49.01098
G1 X115.705 Y101.130 E49.07584
G1 X116.250 Y101.750 F7800.000
G1 F1800
G1 X83.750 Y101.750 E49.67671
G1 X83.750 Y98.250 E49.74142
G1 X116.250 Y98.250 E50.34228
G1 X116.250 Y101.675 E50.40561
G1 X115.750 Y101.732 F7800.000
G1 X114.723 Y100.000 F7800.000
G1 F1200
G1 X85.277 Y100.000 E50.88302
G1 Z3.350 F7800.000
G1 X115.050 Y100.550 F7800.000
G1 F3600
G1 X84.950 Y100.550 E51.71916
G1 X84.950 Y99.450 E51.74974
G1 X115.050 Y99.450 E52.58587
G1 X115.050 Y100.475 E52.61437
G1 X115.705 Y101.205 F7800.000
G1 F3600
G1 X84.295 Y101.205 E53.48687
G1 X84.295 Y98.795 E53.55381
G1 X115.705 Y98.795 E54.42630
G1 X115.705 Y101.130 E54.49116
G1 X116.250 Y101.750 F7800.000
G1 F1800
G1 X83.750 Y101.750 E55.09203
G1 X83.750 Y98.250 E55.15674
G1 X116.250 Y98.250 E55.75761
G1 X116.250 Y101.675 E55.82093
G1 X115.750 Y101.732 F7800.000
G1 X114.723 Y100.000 F7800.000
G1 F1200
G1 X85.277 Y100.000 E56.29834
G1 Z3.650 F7800.000
G1 X115.050 Y100.550 F7800.000
G1 F3600
G1 X84.950 Y100.550 E57.13448
G1 X84.950 Y99.450 E57.16506
G1 X115.050 Y99.450 E58.00120
G1 X115.050 Y100.475 E58.02969
G1 X115.705 Y101.205 F7800.000
G1 F3600
G1 X84.295 Y101.205 E58.90219
G1 X84.295 Y98.795 E58.96913
G1 X115.705 Y98.795 E59.84163
G1 X115.705 Y101.130 E59.90649
G1 X116.250 Y101.750 F7800.000
G1 F1800
G1 X83.750 Y101.750 E60.50735
G1 X83.750 Y98.250 E60.57206
G1 X116.250 Y98.250 E61.17293
G1 X116.250 Y101.675 E61.23625
G1 X115.750 Y101.732 F7800.000
G1 X114.723 Y100.000 F7800.000
G1 F1200
G1 X85.277 Y100.000 E61.71367
G1 Z3.950 F7800.000
G1 X115.050 Y100.550 F7800.000
G1 F3600
G1 X84.950 Y100.550 E62.54980
G1 X84.950 Y99.450 E62.58038
G1 X115.050 Y99.450 E63.41652
G1 X115.050 Y100.475 E63.44502
G1 X115.705 Y101.205 F7800.000
G1 F3600
G1 X84.295 Y101.205 E64.31751
G1 X84.295 Y98.795 E64.38445
G1 X115.705 Y98.795 E65.25695
G1 X115.705 Y101.130 E65.32181
G1 X116.250 Y101.750 F7800.000
G1 F1800
G1 X83.750 Y101.750 E65.92268
G1 X83.750 Y98.250 E65.98739
G1 X116.250 Y98.250 E66.58825
G1 X116.250 Y101.675 E66.65158
G1 X115.750 Y101.732 F7800.000
G1 X114.723 Y100.000 F7800.000
G1 F1200
G1 X85.277 Y100.000 E67.12899
G1 Z4.250 F7800.000
G1 X115.050 Y100.550 F7800.000
G1 F3600
G1 X84.950 Y100.550 E67.96513
G1 X84.950 Y99.450 E67.99571
G1 X115.050 Y99.450 E68.83184
G1 X115.050 Y100.475 E68.86034
G1 X115.705 Y101.205 F7800.000
G1 F3600
G1 X84.295 Y101.205 E69.73284
G1 X84.295 Y98.795 E69.79978
G1 X115.705 Y98.795 E70.67227
G1 X115.705 Y101.130 E70.73713
G1 X116.250 Y101.750 F7800.000
G1 F1800
G1 X83.750 Y101.750 E71.33800
G1 X83.750 Y98.250 E71.40271
G1 X116.250 Y98.250 E72.00358
G1 X116.250 Y101.675 E72.06690
G1 X115.750 Y101.732 F7800.000
G1 X114.723 Y100.000 F7800.000
G1 F1200
G1 X85.277 Y100.000 E72.54431
G1 Z4.550 F7800.000
G1 X115.050 Y100.550 F7800.000
G1 F3600
G1 X84.950 Y100.550 E73.38045
G1 X84.950 Y99.450 E73.41103
G1 X115.050 Y99.450 E74.24717
G1 X115.050 Y100.475 E74.27566
G1 X115.705 Y101.205 F7800.000
G1 F3600
G1 X84.295 Y101.205 E75.14816
G1 X84.295 Y98.795 E75.21510
G1 X115.705 Y98.795 E76.08760
G1 X115.705 Y101.130 E76.15246
G1 X116.250 Y101.750 F7800.000
G1 F1800
G1 X83.750 Y101.750 E76.75332
G1 X83.750 Y98.250 E76.81803
G1 X116.250 Y98.250 E77.41890
G1 X116.250 Y101.675 E77.48222
G1 X115.750 Y101.732 F7800.000
G1 X114.723 Y100.000 F7800.000
G1 F1200
G1 X85.277 Y100.000 E77.95964
G1 Z4.850 F7800.000
G1 X115.050 Y100.550 F7800.000
G1 F3600
G1 X84.950 Y100.550 E78.79577
G1 X84.950 Y99.489 E78.82525
G1 X115.050 Y99.489 E79.66138
G1 X115.050 Y100.475 E79.68877
G1 X115.705 Y101.205 F7800.000
G1 F3600
G1 X84.295 Y101.205 E80.56127
G1 X84.295 Y98.835 E80.62711
G1 X115.705 Y98.835 E81.49960
G1 X115.705 Y101.130 E81.56335
G1 X116.250 Y101.750 F7800.000
G1 F1800
G1 X83.750 Y101.750 E82.16422
G1 X83.750 Y98.290 E82.22819
G1 X116.250 Y98.290 E82.82906
G1 X116.250 Y101.675 E82.89165
G1 X115.750 Y101.732 F7800.000
G1 X114.723 Y100.020 F7800.000
G1 F1200
G1 X85.277 Y100.020 E83.31928
G1 Z5.150 F7800.000
G1 X115.050 Y100.550 F7800.000
G1 F3600
G1 X84.950 Y100.550 E84.15542
G1 X84.950 Y99.643 E84.18062
G1 X115.050 Y99.643 E85.01675
G1 X115.050 Y100.475 E85.03987
G1 X115.705 Y101.205 F7800.000
G1 F3600
G1 X84.295 Y101.205 E85.91237
G1 X84.295 Y98.989 E85.97392
G1 X115.705 Y98.989 E86.84642
G1 X115.705 Y101.130 E86.90590
G1 X116.250 Y101.750 F7800.000
G1 F1800
G1 X83.750 Y101.750 E87.50677
G1 X83.750 Y98.444 E87.56789
G1 X116.250 Y98.444 E88.16876
G1 X116.250 Y101.675 E88.22850
G1 X115.750 Y101.733 F7800.000
G1 X114.723 Y100.097 F7800.000
G1 F1200
G1 X85.277 Y100.097 E88.46380
G1 Z5.450 F7800.000
G1 X115.050 Y100.550 F7800.000
G1 F3600
G1 X84.950 Y100.550 E89.29993
G1 X84.950 Y99.782 E89.32129
G1 X115.050 Y99.782 E90.15742
G1 X115.050 Y100.475 E90.17670
G1 X115.705 Y101.205 F7800.000
G1 F3600
G1 X84.295 Y101.205 E91.04919
G1 X84.295 Y99.127 E91.10691
G1 X115.705 Y99.127 E91.97941
G1 X115.705 Y101.130 E92.03504
G1 X116.250 Y101.750 F7800.000
G1 F1800
G1 X83.750 Y101.750 E92.63591
G1 X83.750 Y98.582 E92.69448
G1 X116.250 Y98.582 E93.29535
G1 X116.250 Y101.675 E93.35253
G1 X115.750 Y101.734 F7800.000
G1 X114.723 Y100.166 F7800.000
G1 F1200
G1 X85.277 Y100.166 E93.41495
M106 S255
G1 Z5.750 F7800.000
G1 X115.050 Y100.550 F7800.000
G1 F3241.16
G1 X84.950 Y100.550 E94.25109
G1 X84.950 Y99.905 E94.26901
G1 X115.050 Y99.905 E95.10514
G1 X115.050 Y100.475 E95.12098
G1 X115.705 Y101.205 F7800.000
G1 F3241.16
G1 X84.295 Y101.205 E95.99348
G1 X84.295 Y99.251 E96.04776
G1 X115.705 Y99.251 E96.92025
G1 X115.705 Y101.130 E96.97245
G1 X116.250 Y101.750 F7800.000
G1 F1620.58
G1 X83.750 Y101.750 E97.57332
G1 X83.750 Y98.706 E97.62960
G1 X116.250 Y98.706 E98.23047
G1 X116.250 Y101.675 E98.28537
G1 X115.750 Y101.734 F7800.000
G1 Z6.050 F7800.000
G1 X115.050 Y100.550 F7800.000
G1 F3230.61
G1 X84.950 Y100.550 E99.12150
G1 X84.950 Y100.015 E99.13637
G1 X115.050 Y100.015 E99.97250
G1 X115.050 Y100.475 E99.98529
G1 X115.705 Y101.205 F7800.000
G1 F3230.61
G1 X84.295 Y101.205 E100.85778
G1 X84.295 Y99.361 E100.90901
G1 X115.705 Y99.361 E101.78151
G1 X115.705 Y101.130 E101.83065
G1 X116.250 Y101.750 F7800.000
G1 F1615.3
G1 X83.750 Y101.750 E102.43152
G1 X83.750 Y98.816 E102.48577
G1 X116.250 Y98.816 E103.08664
G1 X116.250 Y101.675 E103.13950
G1 X115.750 Y101.735 F7800.000
G1 Z6.350 F7800.000
G1 X115.050 Y100.550 F7800.000
G1 F3221.35
G1 X84.950 Y100.550 E103.97564
G1 X84.950 Y100.112 E103.98782
G1 X115.050 Y100.112 E104.82396
G1 X115.050 Y100.475 E104.83406
G1 X115.705 Y101.205 F7800.000
G1 F3221.35
G1 X84.295 Y101.205 E105.70656
G1 X84.295 Y99.457 E105.75511
G1 X115.705 Y99.457 E106.62760
G1 X115.705 Y101.130 E106.67407
G1 X116.250 Y101.750 F7800.000
G1 F1610.67
G1 X83.750 Y101.750 E107.27494
G1 X83.750 Y98.912 E107.32740
G1 X116.250 Y98.912 E107.92827
G1 X116.250 Y101.675 E107.97935
G1 X115.750 Y101.735 F7800.000
M106 S237.15
G1 Z6.650 F7800.000
G1 X115.705 Y101.205 F7800.000
G1 F900
G1 X101.935 Y101.205 E108.36184
G1 X101.935 Y99.541 E108.40806
G1 X115.705 Y99.541 E108.79055
G1 X115.705 Y101.130 E108.83469
G1 X116.250 Y101.750 F7800.000
G1 F900
G1 X101.390 Y101.750 E109.10942
G1 X101.390 Y98.996 E109.16034
G1 X116.250 Y98.996 E109.43507
G1 X116.250 Y101.675 E109.48460
G1 X115.751 Y101.719 F7800.000
G1 X115.378 Y100.373 F7800.000
G1 F1200
G1 X102.263 Y100.373 E110.01063
G1 E108.01063 F2400.00000
G92 E0
G1 X99.065 Y101.205 F7800.000
G1 E2.00000 F2400.00000
G1 F900
G1 X84.295 Y101.205 E2.41027
G1 X84.295 Y99.541 E2.45649
G1 X99.065 Y99.541 E2.86675
G1 X99.065 Y101.130 E2.91089
G1 X99.610 Y101.750 F7800.000
G1 F900
G1 X83.750 Y101.750 E3.20411
G1 X83.750 Y98.996 E3.25503
G1 X99.610 Y98.996 E3.54824
G1 X99.610 Y101.675 E3.59778
G1 X99.111 Y101.721 F7800.000
G1 X98.737 Y100.373 F7800.000
G1 F1200
G1 X84.622 Y100.373 E4.16391
M106 S239.7
G1 Z6.950 F7800.000
G1 E2.16391 F2400.00000
G92 E0
G1 X102.528 Y101.205 F7800.000
G1 E2.00000 F2400.00000
G1 F900
G1 X102.528 Y99.612 E2.04424
G1 X115.705 Y99.612 E2.41027
G1 X115.705 Y101.205 E2.45451
G1 X102.603 Y101.205 E2.81845
G1 X101.983 Y101.750 F7800.000
G1 F900
G1 X101.983 Y99.067 E2.86805
G1 X116.250 Y99.067 E3.13183
G1 X116.250 Y101.750 E3.18143
G1 X102.058 Y101.750 E3.44381
G1 X102.206 Y101.302 F7800.000
G1 X102.855 Y100.409 F7800.000
G1 F1200
G1 X115.378 Y100.409 E3.90821
G1 E1.90821 F2400.00000
G92 E0
G1 X98.472 Y101.205 F7800.000
G1 E2.00000 F2400.00000
G1 F900
G1 X84.295 Y101.205 E2.39381
G1 X84.295 Y99.612 E2.43805
G1 X98.472 Y99.612 E2.83185
G1 X98.472 Y101.130 E2.87401
G1 X99.017 Y101.750 F7800.000
G1 F900
G1 X83.750 Y101.750 E3.15627
G1 X83.750 Y99.067 E3.20587
G1 X99.017 Y99.067 E3.48813
G1 X99.017 Y101.675 E3.53635
G1 X98.524 Y101.669 F7800.000
G1 X98.145 Y100.409 F7800.000
G1 F1200
G1 X84.622 Y100.409 E4.03781
G1 Z7.250 F7800.000
G1 E2.03781 F2400.00000
G92 E0
G1 X102.860 Y101.205 F7800.000
G1 E2.00000 F2400.00000
G1 F900
G1 X102.860 Y99.672 E2.04259
